src/assets/images/icon-match.inline.svg

<?xml version="1.0" encoding="UTF-8"?>
<svg width="77px" height="74px" viewBox="0 0 77 74" version="1.1" xmlns="http://www.w3.org/2000/svg" xmlns:xlink="http://www.w3.org/1999/xlink">
    <!-- Generator: Sketch 54.1 (76490) - https://sketchapp.com -->
    <title>filter (1) copy</title>
    <desc>Created with Sketch.</desc>
    <g id="Page-1" stroke="none" stroke-width="1" fill="none" fill-rule="evenodd">
        <g id="Desktop-HD-Copy-2" transform="translate(-456.000000, -4650.000000)" fill-rule="nonzero">
            <g id="filter-(1)-copy" transform="translate(456.000000, 4650.000000)">
                <path d="M38.5,0.123383673 C24.5860098,0.123383673 13.2664082,11.4906898 13.2664082,25.4629469 C13.2664082,26.2218245 13.3020508,27.0013918 13.3724336,27.7802041 C13.4386055,28.5134082 13.8554883,29.1685347 14.4902871,29.5370245 C15.1250859,29.9053633 15.8980937,29.9408531 16.5641738,29.6326204 C19.2915078,28.3690327 22.208334,27.7284041 25.2338926,27.7284041 C29.5501035,27.7284041 33.6865977,29.0478694 37.1961133,31.5442367 C37.5866777,31.8221143 38.0434141,31.9610531 38.5,31.9610531 C38.9565859,31.9610531 39.4133223,31.8221143 39.8038867,31.5442367 C43.3134023,29.0480204 47.4500469,27.7284041 51.7664082,27.7284041 C54.7919668,27.7284041 57.7089434,28.3690327 60.436127,29.6326204 C61.1020566,29.9413061 61.8753652,29.9053633 62.5100137,29.5370245 C63.1448125,29.1686857 63.5615449,28.5135592 63.6278672,27.7803551 C63.69825,27.0015429 63.7338926,26.2219755 63.7338926,25.4629469 C63.7338926,11.4906898 52.4141406,0.123383673 38.5,0.123383673 Z" id="Path" fill="#6EBC4A"></path>
                <path d="M39.8038867,65.5301714 C34.3189902,61.6287102 31.0445352,55.2761878 31.0445352,48.5370531 C31.0445352,47.9142449 31.0740117,47.2722571 31.1320625,46.6292122 C31.2182363,45.6747633 30.6969824,44.7690939 29.830582,44.3675306 C23.1171445,41.2571143 18.5324863,34.7443592 17.8656543,27.3707878 C17.7994824,26.6375837 17.3824492,25.9826082 16.7476504,25.6142694 C16.113002,25.2459306 15.3396934,25.2101388 14.6739141,25.5186735 C10.3558984,27.5192408 6.69614258,30.6947469 4.09047461,34.7023755 C1.41442383,38.8179837 0,43.6020082 0,48.5370531 C0,62.5094612 11.3199023,73.8766163 25.2338926,73.8766163 C30.4897441,73.8766163 35.5281309,72.2690041 39.8040371,69.227302 C40.4010879,68.8024816 40.7558594,68.1135265 40.7558594,67.3788122 C40.7558594,66.6439469 40.4010879,65.9548408 39.8038867,65.5301714 Z" id="Path" fill="#FF598B"></path>
                <path d="M39.8038867,27.8471061 C35.5278301,24.8054041 30.4895938,23.1977918 25.2338926,23.1977918 C21.5509766,23.1977918 17.997998,23.9787184 14.6739141,25.5188245 C13.8072129,25.9203878 13.285959,26.8260571 13.3724336,27.7806571 C14.184543,36.7625959 19.7667422,44.6946408 27.9403223,48.4814776 C28.2409531,48.6207184 28.5633906,48.6898857 28.8852266,48.6898857 C29.2762422,48.6898857 29.6659043,48.5879469 30.0140586,48.3858816 C30.6488574,48.0175429 31.0657402,47.3625673 31.1320625,46.6293633 C31.6796348,40.5731429 34.8403945,35.0747918 39.8038867,31.5440857 C40.4010879,31.1192653 40.7558594,30.4303102 40.7558594,29.6955959 C40.7558594,28.9608816 40.4010879,28.2717755 39.8038867,27.8471061 Z" id="Path" fill="#FFD97D"></path>
                <path d="M72.9096758,34.7023755 C70.3040078,30.695049 66.6444023,27.5193918 62.3263867,25.5186735 C61.660457,25.2102898 60.8872988,25.2459306 60.2526504,25.6142694 C59.6178516,25.9826082 59.2009688,26.6375837 59.1346465,27.3707878 C58.4678145,34.7442082 53.8831562,41.2569633 47.1697188,44.3673796 C46.303168,44.7687918 45.7819141,45.6744612 45.8682383,46.6289102 C45.9262891,47.2722571 45.9557656,47.9142449 45.9557656,48.5370531 C45.9557656,55.2761878 42.6811602,61.6287102 37.1961133,65.5301714 C36.5989121,65.9548408 36.2441406,66.6439469 36.2441406,67.3786612 C36.2441406,68.1133755 36.5989121,68.8024816 37.1959629,69.227151 C41.4718691,72.2688531 46.5102559,73.8764653 51.7664082,73.8764653 C65.6803984,73.8764653 77,62.5091592 77,48.536902 C77,43.6020082 75.5855762,38.8179837 72.9096758,34.7023755 Z" id="Path" fill="#09426D"></path>
                <path d="M62.3263867,25.5188245 C59.0023027,23.9787184 55.4493242,23.1977918 51.7664082,23.1977918 C46.5105566,23.1977918 41.4721699,24.8055551 37.1961133,27.8471061 C36.5989121,28.2719265 36.2441406,28.9608816 36.2441406,29.6955959 C36.2441406,30.4303102 36.5989121,31.1195673 37.1961133,31.5440857 C42.1597559,35.0747918 45.320666,40.5729918 45.8682383,46.6292122 C45.9344102,47.3622653 46.3514434,48.0173918 46.9862422,48.3857306 C47.3342461,48.5877959 47.7240586,48.6897347 48.1150742,48.6897347 C48.4369102,48.6897347 48.7593477,48.6205673 49.0599785,48.4813265 C57.233709,44.6944898 62.8157578,36.7622939 63.6278672,27.7806571 C63.7141914,26.8260571 63.1929375,25.9203878 62.3263867,25.5188245 Z" id="Path" fill="#91E1FF"></path>
                <path d="M50.361459,46.2197959 C50.2952871,45.4865918 49.8784043,44.8314653 49.2436055,44.4629755 C48.6086563,44.0946367 47.835498,44.0588449 47.1697188,44.3673796 C44.4423848,45.6309673 41.5255586,46.2715959 38.5,46.2715959 C35.4745918,46.2715959 32.5576152,45.6309673 29.830582,44.3675306 C29.1648027,44.0588449 28.3914941,44.0944857 27.7566953,44.4631265 C27.1218965,44.8314653 26.7051641,45.4865918 26.6388418,46.2197959 C26.568459,46.9984571 26.5328164,47.7781755 26.5328164,48.5370531 C26.5328164,56.743351 30.5190703,64.4780122 37.1961133,69.227302 C37.5868281,69.5051796 38.0432637,69.6441184 38.5,69.6441184 C38.9565859,69.6441184 39.4133223,69.5051796 39.8038867,69.227302 C46.4810801,64.4780122 50.4674844,56.743351 50.4674844,48.5370531 C50.4674844,47.7781755 50.4318418,46.9986082 50.361459,46.2197959 Z" id="Path" fill="#FFB8AA"></path>
                <path d="M50.361459,46.2194939 C49.6943262,38.8413918 45.8464316,32.1449959 39.8038867,27.8471061 C39.0229082,27.291351 37.9773926,27.291351 37.1959629,27.8471061 C31.1538691,32.1449959 27.3058242,38.8415429 26.6388418,46.2196449 C26.5525176,47.1740939 27.0737715,48.0799143 27.9403223,48.4814776 C31.2645566,50.0214327 34.8172344,50.8023592 38.5,50.8023592 C42.182916,50.8023592 45.7357441,50.0214327 49.0599785,48.4813265 C49.9265293,48.0796122 50.4477832,47.1739429 50.361459,46.2194939 Z" id="Path" fill="#C7EFFF"></path>
            </g>
        </g>
    </g>
</svg>

<svg width="77" height="74" xmlns="http://www.w3.org/2000/svg"><g fill-rule="nonzero" fill="none"><path d="M38.5.123c-13.914 0-25.234 11.368-25.234 25.34 0 .759.036 1.538.106 2.317a2.266 2.266 0 0 0 1.118 1.757 2.248 2.248 0 0 0 2.074.096 20.475 20.475 0 0 1 8.67-1.905c4.316 0 8.453 1.32 11.962 3.816a2.246 2.246 0 0 0 2.608 0 20.525 20.525 0 0 1 11.962-3.816c3.026 0 5.943.641 8.67 1.905.666.308 1.44.272 2.074-.096a2.266 2.266 0 0 0 1.118-1.757c.07-.778.106-1.558.106-2.317C63.734 11.49 52.414.123 38.5.123z" fill="#6EBC4A"/><path d="M39.804 65.53a20.886 20.886 0 0 1-8.672-18.9 2.267 2.267 0 0 0-1.301-2.262c-6.714-3.11-11.299-9.624-11.965-16.997a2.266 2.266 0 0 0-1.118-1.757 2.247 2.247 0 0 0-2.074-.095A25.303 25.303 0 0 0 4.09 34.702 25.315 25.315 0 0 0 0 48.537c0 13.972 11.32 25.34 25.234 25.34a24.997 24.997 0 0 0 14.57-4.65 2.268 2.268 0 0 0 0-3.697z" fill="#FF598B"/><path d="M39.804 27.847a24.998 24.998 0 0 0-14.57-4.65c-3.683 0-7.236.782-10.56 2.322a2.266 2.266 0 0 0-1.302 2.262c.813 8.982 6.395 16.914 14.568 20.7a2.247 2.247 0 0 0 2.074-.095 2.266 2.266 0 0 0 1.118-1.757 20.793 20.793 0 0 1 8.672-15.085 2.268 2.268 0 0 0 0-3.697z" fill="#FFD97D"/><path d="M72.91 34.702a25.306 25.306 0 0 0-10.584-9.183 2.247 2.247 0 0 0-2.073.095 2.266 2.266 0 0 0-1.118 1.757c-.667 7.373-5.252 13.886-11.965 16.996a2.266 2.266 0 0 0-1.302 2.262 20.886 20.886 0 0 1-8.672 18.901 2.268 2.268 0 0 0 0 3.697 24.998 24.998 0 0 0 14.57 4.65C65.68 73.876 77 62.508 77 48.536c0-4.935-1.414-9.719-4.09-13.835z" fill="#09426D"/><path d="M62.326 25.519a24.94 24.94 0 0 0-10.56-2.321 25 25 0 0 0-14.57 4.65 2.268 2.268 0 0 0 0 3.696 20.792 20.792 0 0 1 8.672 15.085 2.266 2.266 0 0 0 1.118 1.757 2.247 2.247 0 0 0 2.074.095c8.174-3.787 13.756-11.719 14.568-20.7a2.267 2.267 0 0 0-1.302-2.262z" fill="#91E1FF"/><path d="M50.361 46.22a2.266 2.266 0 0 0-1.117-1.757 2.247 2.247 0 0 0-2.074-.096 20.475 20.475 0 0 1-8.67 1.905c-3.025 0-5.942-.641-8.67-1.904a2.246 2.246 0 0 0-2.073.095 2.266 2.266 0 0 0-1.118 1.757 25.429 25.429 0 0 0 10.557 23.008 2.246 2.246 0 0 0 2.608 0A25.429 25.429 0 0 0 50.36 46.22z" fill="#FFB8AA"/><path d="M50.361 46.22a25.32 25.32 0 0 0-10.557-18.373 2.248 2.248 0 0 0-2.608 0A25.32 25.32 0 0 0 26.639 46.22a2.267 2.267 0 0 0 1.301 2.261 24.942 24.942 0 0 0 10.56 2.321c3.683 0 7.236-.78 10.56-2.32a2.267 2.267 0 0 0 1.301-2.263z" fill="#C7EFFF"/></g></svg>
